svg/furkot/freepik/anchor.svg

<svg viewBox="0 0 512 512" xmlns="http://www.w3.org/2000/svg"><path d="m350.163 322.748 42.25 41s-51.813 74.986-107.232 76.482c1.203 0 .294-211.055.098-262.205 36.879-12.039 63.754-45.633 63.754-85.627 0-50.218-41.906-90.9-93.548-90.9-51.739 0-93.645 40.682-93.645 90.875 0 39.331 26.041 72.606 62.112 85.236l.246 261.715c-66.868-4.611-105.565-68.955-105.565-68.955l45.169-43.695-163.802-24.23 24.814 158.873 43.576-42.152c37.737 30.381 80.356 93.475 182.904 93.475 128.833-3.285 158.58-72.631 191.609-99.9l47.668 46.466 23.565-160.394zm-142.959-231.873c0-25.846 21.605-46.835 48.234-46.835s48.331 20.989 48.331 46.835c0 25.919-21.702 46.886-48.331 46.886s-48.234-20.967-48.234-46.886z"/></svg>

<svg xmlns="http://www.w3.org/2000/svg" viewBox="0 0 512 512"><path d="M350.163 322.748L392.413 363.748C392.413 363.748 340.6 438.734 285.181 440.23 286.384 440.23 285.475 229.175 285.279 178.025 322.158 165.986 349.033 132.392 349.033 92.398 349.033 42.18 307.127 1.498 255.485 1.498 203.746 1.498 161.84 42.18 161.84 92.373 161.84 131.704 187.881 164.979 223.952 177.609L224.198 439.324C157.33 434.713 118.633 370.369 118.633 370.369L163.802 326.674 0 302.444 24.814 461.317 68.39 419.165C106.127 449.546 148.746 512.64 251.294 512.64 380.127 509.355 409.874 440.009 442.903 412.74L490.571 459.206 514.136 298.812 350.163 322.748ZM207.204 90.875C207.204 65.029 228.809 44.04 255.438 44.04S303.769 65.029 303.769 90.875C303.769 116.794 282.067 137.761 255.438 137.761S207.204 116.794 207.204 90.875Z"/></svg>
